X:3
T:Untitled 3
C:Unknown composer
%%score 1(3 4 )
M:4/4
L:1/4
Q:1/4=120
%%MIDI drummap ^a 49
%%MIDI drummap ^g 42
%%MIDI drummap _g 46
%%MIDI drummap c 38
%%MIDI drummap F 35
V:1
CCCC | DDDD| CCDD | DDCC |]
K:C clef=perc
V:3
%%MIDI channel 10
^a^g[c^g]^g | ^g^g[c^g]_g | ^g^g[c^g]^g | ^g/c/^g c/^a3/ ||
V:4
%%MIDI channel 10
FF/F/ z3/{/F}F/ | zF/F/ z/F3/ | FF/F/ z3/F/ | z3/F/ z/F3/ ||



